icons/purgatory/icon_preloader-logo_xxl_color.svg

<?xml version="1.0" encoding="UTF-8"?>
<svg width="48px" height="48px" viewBox="0 0 48 48" version="1.1" xmlns="http://www.w3.org/2000/svg" xmlns:xlink="http://www.w3.org/1999/xlink">
    <!-- Generator: Sketch 48.2 (47327) - http://www.bohemiancoding.com/sketch -->
    <title>icon_preloader-logo_xxl_color</title>
    <desc>Created with Sketch.</desc>
    <defs></defs>
    <g id="set" stroke="none" stroke-width="1" fill="none" fill-rule="evenodd">
        <g id="Artboard-2" transform="translate(-189.000000, -127.000000)">
            <g id="icon_preloader-logo_xxl_color" transform="translate(189.000000, 127.000000)">
                <polygon id="Shape" points="0 0 48 0 48 48 0 48"></polygon>
                <path d="M24,3.9999 C35.046,3.9999 44,12.9549 44,23.9999 C44,35.0449 35.046,43.9999 24,43.9999 C12.954,43.9999 4,35.0449 4,23.9999 C4,12.9549 12.954,3.9999 24,3.9999" id="Fill-1" fill="#F03226"></path>
                <path d="M25.9198,16.78 L29.4298,26.13 C29.4488,26.176 29.4478,26.229 29.4278,26.274 C29.4058,26.32 29.3668,26.354 29.3208,26.37 L27.4098,27.09 C27.3168,27.118 27.2168,27.071 27.1798,26.98 C27.1798,26.89 26.5098,24.9 26.4298,24.68 L21.5498,24.68 L20.6898,27 C20.6748,27.045 20.6408,27.082 20.5978,27.103 C20.5548,27.123 20.5048,27.126 20.4598,27.11 L18.5498,26.39 C18.5028,26.374 18.4638,26.339 18.4428,26.294 C18.4218,26.248 18.4208,26.197 18.4398,26.15 L21.9998,16.76 C22.3198,15.9 22.7298,15 23.9998,15 C25.2698,15 25.5898,15.88 25.9198,16.76 L25.9198,16.78 Z M22.2798,22.66 L25.5898,22.66 L23.9398,17.87 L22.2798,22.66 Z M17.9998,31 C18.0028,30.952 18.0238,30.908 18.0598,30.875 C18.0948,30.844 18.1418,30.827 18.1898,30.83 L29.8208,30.83 C29.9158,30.829 29.9948,30.905 29.9998,31 L29.9998,32.86 C29.9948,32.955 29.9158,33.03 29.8208,33.03 L18.1898,33.03 C18.1418,33.033 18.0948,33.016 18.0598,32.985 C18.0238,32.952 18.0028,32.908 17.9998,32.86 L17.9998,31 Z" id="Fill-3" fill="#FFFFFF"></path>
            </g>
        </g>
    </g>
</svg>

<svg width="48" height="48" viewBox="0 0 48 48" xmlns="http://www.w3.org/2000/svg"><g fill="none" fill-rule="evenodd"><path d="M0 0h48v48H0z"/><path d="M24 4c11.046 0 20 8.955 20 20s-8.954 20-20 20S4 35.045 4 24 12.954 4 24 4" fill="#F03226"/><path d="M25.92 16.78l3.51 9.35a.185.185 0 0 1-.002.144.187.187 0 0 1-.107.096l-1.911.72a.19.19 0 0 1-.23-.11c0-.09-.67-2.08-.75-2.3h-4.88L20.69 27a.18.18 0 0 1-.23.11l-1.91-.72a.18.18 0 0 1-.11-.24L22 16.76c.32-.86.73-1.76 2-1.76s1.59.88 1.92 1.76v.02zm-3.64 5.88h3.31l-1.65-4.79-1.66 4.79zM18 31a.18.18 0 0 1 .19-.17h11.63A.179.179 0 0 1 30 31v1.86a.18.18 0 0 1-.18.17H18.19a.18.18 0 0 1-.19-.17V31z" fill="#FFF"/></g></svg>
